img/icon/icon-close.svg

<svg width="21" height="21" viewBox="0 0 21 21" fill="none" xmlns="http://www.w3.org/2000/svg">
<path d="M13.2729 10.5L20.6949 3.07799C21.0839 2.68899 21.0839 2.05299 20.6949 1.66399L19.3359 0.304995C18.9469 -0.0840054 18.3109 -0.0840054 17.9219 0.304995L10.4999 7.72699L3.07793 0.304995C2.68893 -0.0840054 2.05293 -0.0840054 1.66393 0.304995L0.304934 1.66399C-0.0840664 2.05299 -0.0840664 2.68899 0.304934 3.07799L7.72693 10.5L0.305934 17.922C-0.0830664 18.311 -0.0830664 18.947 0.305934 19.336L1.66493 20.695C2.05393 21.084 2.68993 21.084 3.07893 20.695L10.5009 13.273L17.9229 20.695C18.3119 21.084 18.9479 21.084 19.3369 20.695L20.6959 19.336C21.0849 18.947 21.0849 18.311 20.6959 17.922L13.2729 10.5Z" fill="#EE3643"/>
</svg>

<svg width="21" height="21" fill="none" xmlns="http://www.w3.org/2000/svg"><path d="M13.27 10.5l7.43-7.42a1 1 0 000-1.42L19.34.3a1 1 0 00-1.42 0L10.5 7.73 3.08.3a1 1 0 00-1.42 0L.3 1.66a1 1 0 000 1.42l7.43 7.42L.3 17.92a1 1 0 000 1.42l1.35 1.36a1 1 0 001.42 0l7.42-7.43 7.42 7.43a1 1 0 001.42 0l1.36-1.36a1 1 0 000-1.42l-7.43-7.42z" fill="#EE3643"/></svg>
